Newaita/actions/16/format-text-direction-horizontal.svg

<svg height="16" viewBox="0 0 16 16" width="16" xmlns="http://www.w3.org/2000/svg"><g fill="#424242"><path d="m14.222656 4.09375h-8.269531c-.183594 0-.332031-.148438-.332031-.332031v-.660157c0-.183593.148437-.332031.332031-.332031h8.269531c.183594 0 .332032.148438.332032.332031v.660157c0 .183593-.148438.332031-.332032.332031zm0 0"/><path d="m14.222656 13.355469h-12.570312c-.179688 0-.328125-.148438-.328125-.332031v-.660157c0-.183593.148437-.332031.328125-.332031h12.570312c.183594 0 .332032.148438.332032.332031v.660157c0 .183593-.148438.332031-.332032.332031zm0 0"/><path d="m2.976562 1.449219c-.914062 0-1.652343.738281-1.652343 1.652343v2.976563-.164063c0-.09375.074219.164063.164062.164063h.332031c.089844 0 .164063-.074219.164063-.164063v-1.160156h1.984375v1.160156c0 .089844.074219.164063.164062.164063h.332032c.09375 0 .164062-.074219.164062-.164063v-2.8125c0-.914062-.734375-1.652343-1.652344-1.652343zm0 .660156c.550782 0 .992188.441406.992188.992187v.992188h-1.984375v-.992188c0-.550781.441406-.992187.992187-.992187zm0 0"/><path d="m14.222656 8.726562h-12.570312c-.179688 0-.328125-.148437-.328125-.332031v-.660156c0-.183594.148437-.332031.328125-.332031h12.570312c.183594 0 .332032.148437.332032.332031v.660156c0 .183594-.148438.332031-.332032.332031zm0 0"/></g></svg>

<?xml version="1.0" encoding="UTF-8"?>
<svg xmlns="http://www.w3.org/2000/svg" xmlns:xlink="http://www.w3.org/1999/xlink" width="16px" height="16px" viewBox="0 0 16 16" version="1.1">
<g id="surface1">
<path style=" stroke:none;fill-rule:nonzero;fill:rgb(25.882354%,25.882354%,25.882354%);fill-opacity:1;" d="M 14.222656 4.09375 L 5.953125 4.09375 C 5.769531 4.09375 5.621094 3.945312 5.621094 3.761719 L 5.621094 3.101562 C 5.621094 2.917969 5.769531 2.769531 5.953125 2.769531 L 14.222656 2.769531 C 14.40625 2.769531 14.554688 2.917969 14.554688 3.101562 L 14.554688 3.761719 C 14.554688 3.945312 14.40625 4.09375 14.222656 4.09375 Z M 14.222656 4.09375 "/>
<path style=" stroke:none;fill-rule:nonzero;fill:rgb(25.882354%,25.882354%,25.882354%);fill-opacity:1;" d="M 14.222656 13.355469 L 1.652344 13.355469 C 1.472656 13.355469 1.324219 13.207031 1.324219 13.023438 L 1.324219 12.363281 C 1.324219 12.179688 1.472656 12.03125 1.652344 12.03125 L 14.222656 12.03125 C 14.40625 12.03125 14.554688 12.179688 14.554688 12.363281 L 14.554688 13.023438 C 14.554688 13.207031 14.40625 13.355469 14.222656 13.355469 Z M 14.222656 13.355469 "/>
<path style=" stroke:none;fill-rule:nonzero;fill:rgb(25.882354%,25.882354%,25.882354%);fill-opacity:1;" d="M 2.976562 1.449219 C 2.0625 1.449219 1.324219 2.1875 1.324219 3.101562 L 1.324219 6.078125 L 1.324219 5.914062 C 1.324219 5.820312 1.398438 6.078125 1.488281 6.078125 L 1.820312 6.078125 C 1.910156 6.078125 1.984375 6.003906 1.984375 5.914062 L 1.984375 4.753906 L 3.96875 4.753906 L 3.96875 5.914062 C 3.96875 6.003906 4.042969 6.078125 4.132812 6.078125 L 4.464844 6.078125 C 4.558594 6.078125 4.628906 6.003906 4.628906 5.914062 L 4.628906 3.101562 C 4.628906 2.1875 3.894531 1.449219 2.976562 1.449219 Z M 2.976562 2.109375 C 3.527344 2.109375 3.96875 2.550781 3.96875 3.101562 L 3.96875 4.09375 L 1.984375 4.09375 L 1.984375 3.101562 C 1.984375 2.550781 2.425781 2.109375 2.976562 2.109375 Z M 2.976562 2.109375 "/>
<path style=" stroke:none;fill-rule:nonzero;fill:rgb(25.882354%,25.882354%,25.882354%);fill-opacity:1;" d="M 14.222656 8.726562 L 1.652344 8.726562 C 1.472656 8.726562 1.324219 8.578125 1.324219 8.394531 L 1.324219 7.734375 C 1.324219 7.550781 1.472656 7.402344 1.652344 7.402344 L 14.222656 7.402344 C 14.40625 7.402344 14.554688 7.550781 14.554688 7.734375 L 14.554688 8.394531 C 14.554688 8.578125 14.40625 8.726562 14.222656 8.726562 Z M 14.222656 8.726562 "/>
</g>
</svg>
